assets/icons/24px/stroke/hug-content-vertical-24px.svg

<svg width="24" height="24" viewBox="0 0 24 24" fill="none" xmlns="http://www.w3.org/2000/svg">
<g clip-path="url(#clip0_878_25156)">
<g clip-path="url(#clip1_878_25156)">
<path fill-rule="evenodd" clip-rule="evenodd" d="M17.716 4.3019C18.1015 4.69734 18.0935 5.33045 17.6981 5.716L15.4905 7.86841C15.475 7.88354 15.4595 7.89862 15.4441 7.91365C14.8243 8.51807 14.2894 9.03966 13.8042 9.40123C13.2837 9.78909 12.7072 10.0817 12 10.0817C11.2928 10.0817 10.7163 9.78909 10.1958 9.40123C9.71065 9.03966 9.17574 8.51807 8.55589 7.91364L6.3019 5.716C5.90646 5.33045 5.89845 4.69734 6.284 4.3019C6.66955 3.90646 7.30266 3.89845 7.6981 4.284L9.9057 6.43641C10.5853 7.09898 11.0252 7.52499 11.3909 7.79753C11.7334 8.05277 11.8936 8.0817 12 8.0817C12.1064 8.0817 12.2666 8.05277 12.6091 7.79753C12.9748 7.52499 13.4147 7.09898 14.0943 6.43641L16.3019 4.284C16.6973 3.89845 17.3304 3.90646 17.716 4.3019ZM17.716 19.6981C17.3304 20.0935 16.6973 20.1016 16.3019 19.716L14.0943 17.5636C13.4147 16.901 12.9748 16.475 12.6091 16.2025C12.2666 15.9472 12.1064 15.9183 12 15.9183C11.8936 15.9183 11.7334 15.9472 11.3909 16.2025C11.0252 16.475 10.5853 16.901 9.9057 17.5636L7.6981 19.716C7.30266 20.1016 6.66955 20.0935 6.284 19.6981C5.89845 19.3027 5.90646 18.6696 6.3019 18.284L8.5559 16.0863C9.17575 15.4819 9.71065 14.9603 10.1958 14.5988C10.7163 14.2109 11.2928 13.9183 12 13.9183C12.7072 13.9183 13.2837 14.2109 13.8042 14.5988C14.2893 14.9603 14.8242 15.4819 15.4441 16.0863L17.6981 18.284C18.0935 18.6696 18.1015 19.3027 17.716 19.6981Z" fill="white"/>
</g>
</g>
<defs>
<clipPath id="clip0_878_25156">
<rect width="24" height="24" fill="white"/>
</clipPath>
<clipPath id="clip1_878_25156">
<rect width="24" height="24" fill="white" transform="translate(24) rotate(90)"/>
</clipPath>
</defs>
</svg>

<svg width="24" height="24" fill="none" xmlns="http://www.w3.org/2000/svg"><g clip-path="url(#clip0_878_25156)"><g clip-path="url(#clip1_878_25156)"><path fill-rule="evenodd" clip-rule="evenodd" d="M17.716 4.302a1 1 0 0 1-.018 1.414l-2.207 2.152-.047.046c-.62.604-1.155 1.126-1.64 1.487-.52.388-1.097.68-1.804.68-.707 0-1.284-.292-1.804-.68-.485-.361-1.02-.883-1.64-1.487L6.302 5.716a1 1 0 1 1 1.396-1.432l2.208 2.152c.68.663 1.12 1.089 1.485 1.362.342.255.503.284.609.284.106 0 .267-.03.61-.284.365-.273.805-.699 1.484-1.362l2.208-2.152a1 1 0 0 1 1.414.018zm0 15.396a1 1 0 0 1-1.414.018l-2.208-2.152c-.68-.663-1.12-1.089-1.485-1.361-.342-.256-.503-.285-.609-.285-.106 0-.267.03-.61.285-.365.272-.805.698-1.484 1.36l-2.208 2.153a1 1 0 1 1-1.396-1.432l2.254-2.198c.62-.604 1.155-1.126 1.64-1.487.52-.388 1.097-.68 1.804-.68.707 0 1.284.292 1.804.68.485.361 1.02.883 1.64 1.487l2.254 2.198a1 1 0 0 1 .018 1.414z" fill="#fff"/></g></g><defs><clipPath id="clip0_878_25156"><path fill="#fff" d="M0 0H24V24H0z"/></clipPath><clipPath id="clip1_878_25156"><path fill="#fff" transform="rotate(90 12 12)" d="M0 0H24V24H0z"/></clipPath></defs></svg>
